X: 1
T: Banks Hornpipe
C: Parazotti
R: hornpipe
Z: 2009 John Chambers <jc:trillian.mit.edu>
M: C|
L: 1/8
K: Eb
(3B,CD \
| "Eb"E2 G4 (3BGE | "Bb7"D2 F4 (3AFD | "Ab"A,2 c4 de | "F/A"=ABcB "Bb7"_AGFE \
| "Eb"G,2 B4 c2 | "Ab"A,2 c4 de | "Bb7"DEFG AFDE | "Eb"E2G2 E2 :|
{a}g>^f \
| "Eb"g2E2 E2 (3gbg | "Bb"f2D2 D2 (3fgf | "Cm"e2 c4 fe | "Bb"dcB=A BB{=e}f2 \ 
| "Bb"DBfB DBfB | "Eb"EBgB EBgB | "F7"=ABcd ecAc | "Bb"B=ABc B_AGF ||
| "Eb"EGBG eGFE | "Bb"DFBF dFED | "Ab"CEAE cBAG | "Bb7"FGFE DCB,A, \
| "Eb"G,EBE G,EBE | "Ab"A,EcE A,EcE | "Bb7"DEFG AFDF | "Eb"E2G2 E2 |]
